X: 25
T: Abe's Retreat
B: canberra pickers and fiddlers
B: tunes
M:4/4
L:1/8
R: reel
Q: 1/4=160
K:Amixolydian
V:1 
"A"A2cB ABcd|efgf e2 A2-|-"A"ABAG "G"EBBA|"E"GEFD ~E3G|
"A"A2cB ABcd|efgf efgz|"A"aba2 "G"gfed|1 "A"cAAG A2EG:|2 "A"cAAG A2ce||
~"A"a3g ~e3f|"G"gefd efge|"A"a2ag ~"G"e3f|"E"gefd efge|
"A"az a3 gef|"G"gefd efge|"A"aba2 "G"gfed|1 "A"cAAG A2ce:|2 "A"cAAG A2cB||
% abcbook-tune_id 63ae8f1c88b7c38ca8e66c25
% abcbook-tune_composer_id 
% abcbook-link-0 https://www.youtube.com/watch?v=38rEbkprDU4
% abcbook-link-title-0 American civil war music - Abe&#39;s Retreat
% abcbook-link-start-at-0 45
% abcbook-boost 14
% abcbook-difficulty 0
% abcbook-tags canberra pickers and fiddlers,old time tunes,steve ryan,© free
% abcbook-tablature 
% abcbook-transpose 
% abcbook-tuning AEAE
% abcbook-lastupdated 1731973346327
% abcbook-src-url https://tunebook.net/scrape/tunes.abc
% abcbook-soundfonts 
% abcbook-repeats 1


